src/actions/24/gnumeric-protection-no.svg

<svg viewBox="0 0 24 24" xmlns="http://www.w3.org/2000/svg">
 <defs>
  <style type="text/css">.ColorScheme-Text {
        color:#2e3440;
      }</style>
 </defs>
 <path class="ColorScheme-Text" d="m12 4c-2.216 0-4 1.784-4 4v1h1v-0.5c0-1.939 1.338-3.5 3-3.5s3 1.561 3 3.5v3.5h-5-1-1-1-1v1 7h1 10 1v-8h-1-1v-4c0-2.216-1.784-4-4-4zm-5 9h10v6h-10v-6z" fill="currentColor"/>
</svg>

<svg xmlns="http://www.w3.org/2000/svg" viewBox="0 0 24 24">
  <defs id="defs3051">
    <style type="text/css" id="current-color-scheme">
      .ColorScheme-Text {
        color:#2e3440;
      }
      </style>
  </defs>
 <path style="fill:currentColor;fill-opacity:1;stroke:none" 
     d="M 12 4 C 9.784 4 8 5.784 8 8 L 8 9 L 9 9 L 9 8.5 C 9 6.561 10.338 5 12 5 C 13.662 5 15 6.561 15 8.5 L 15 12 L 10 12 L 9 12 L 8 12 L 7 12 L 6 12 L 6 13 L 6 20 L 7 20 L 17 20 L 18 20 L 18 12 L 17 12 L 16 12 L 16 8 C 16 5.784 14.216 4 12 4 z M 7 13 L 17 13 L 17 19 L 7 19 L 7 13 z "
     class="ColorScheme-Text"
     />
</svg>
